assets/img/prototiparHover.svg

<svg width="213" height="198" viewBox="0 0 213 198" fill="none" xmlns="http://www.w3.org/2000/svg">
<rect width="213" height="198" fill="#301F36"/>
<path d="M58.2303 49.1758V35.1758H64.2903C65.5436 35.1758 66.6236 35.3824 67.5303 35.7958C68.437 36.1958 69.137 36.7758 69.6303 37.5358C70.1236 38.2958 70.3703 39.2024 70.3703 40.2558C70.3703 41.2958 70.1236 42.1958 69.6303 42.9558C69.137 43.7158 68.437 44.3024 67.5303 44.7158C66.6236 45.1158 65.5436 45.3158 64.2903 45.3158H60.0303L61.4703 43.8558V49.1758H58.2303ZM61.4703 44.2158L60.0303 42.6758H64.1103C65.1103 42.6758 65.857 42.4624 66.3503 42.0358C66.8436 41.6091 67.0903 41.0158 67.0903 40.2558C67.0903 39.4824 66.8436 38.8824 66.3503 38.4558C65.857 38.0291 65.1103 37.8158 64.1103 37.8158H60.0303L61.4703 36.2758V44.2158ZM72.4439 49.1758V38.4158H75.4239V41.4558L75.0039 40.5758C75.3239 39.8158 75.8372 39.2424 76.5439 38.8558C77.2506 38.4558 78.1106 38.2558 79.1239 38.2558V41.1358C78.9906 41.1224 78.8706 41.1158 78.7639 41.1158C78.6572 41.1024 78.5439 41.0958 78.4239 41.0958C77.5706 41.0958 76.8772 41.3424 76.3439 41.8358C75.8239 42.3158 75.5639 43.0691 75.5639 44.0958V49.1758H72.4439ZM86.0209 49.3358C84.8743 49.3358 83.8543 49.0958 82.9609 48.6158C82.0809 48.1358 81.3809 47.4824 80.8609 46.6558C80.3543 45.8158 80.1009 44.8624 80.1009 43.7958C80.1009 42.7158 80.3543 41.7624 80.8609 40.9358C81.3809 40.0958 82.0809 39.4424 82.9609 38.9758C83.8543 38.4958 84.8743 38.2558 86.0209 38.2558C87.1543 38.2558 88.1676 38.4958 89.0609 38.9758C89.9543 39.4424 90.6543 40.0891 91.1609 40.9158C91.6676 41.7424 91.9209 42.7024 91.9209 43.7958C91.9209 44.8624 91.6676 45.8158 91.1609 46.6558C90.6543 47.4824 89.9543 48.1358 89.0609 48.6158C88.1676 49.0958 87.1543 49.3358 86.0209 49.3358ZM86.0209 46.7758C86.5409 46.7758 87.0076 46.6558 87.4209 46.4158C87.8343 46.1758 88.1609 45.8358 88.4009 45.3958C88.6409 44.9424 88.7609 44.4091 88.7609 43.7958C88.7609 43.1691 88.6409 42.6358 88.4009 42.1958C88.1609 41.7558 87.8343 41.4158 87.4209 41.1758C87.0076 40.9358 86.5409 40.8158 86.0209 40.8158C85.5009 40.8158 85.0343 40.9358 84.6209 41.1758C84.2076 41.4158 83.8743 41.7558 83.6209 42.1958C83.3809 42.6358 83.2609 43.1691 83.2609 43.7958C83.2609 44.4091 83.3809 44.9424 83.6209 45.3958C83.8743 45.8358 84.2076 46.1758 84.6209 46.4158C85.0343 46.6558 85.5009 46.7758 86.0209 46.7758ZM98.4064 49.3358C97.1397 49.3358 96.1531 49.0158 95.4464 48.3758C94.7397 47.7224 94.3864 46.7558 94.3864 45.4758V36.0358H97.5064V45.4358C97.5064 45.8891 97.6264 46.2424 97.8664 46.4958C98.1064 46.7358 98.4331 46.8558 98.8464 46.8558C99.3397 46.8558 99.7597 46.7224 100.106 46.4558L100.946 48.6558C100.626 48.8824 100.24 49.0558 99.7864 49.1758C99.3464 49.2824 98.8864 49.3358 98.4064 49.3358ZM92.7264 41.0558V38.6558H100.186V41.0558H92.7264ZM107.486 49.3358C106.339 49.3358 105.319 49.0958 104.426 48.6158C103.546 48.1358 102.846 47.4824 102.326 46.6558C101.819 45.8158 101.566 44.8624 101.566 43.7958C101.566 42.7158 101.819 41.7624 102.326 40.9358C102.846 40.0958 103.546 39.4424 104.426 38.9758C105.319 38.4958 106.339 38.2558 107.486 38.2558C108.619 38.2558 109.632 38.4958 110.526 38.9758C111.419 39.4424 112.119 40.0891 112.626 40.9158C113.132 41.7424 113.386 42.7024 113.386 43.7958C113.386 44.8624 113.132 45.8158 112.626 46.6558C112.119 47.4824 111.419 48.1358 110.526 48.6158C109.632 49.0958 108.619 49.3358 107.486 49.3358ZM107.486 46.7758C108.006 46.7758 108.472 46.6558 108.886 46.4158C109.299 46.1758 109.626 45.8358 109.866 45.3958C110.106 44.9424 110.226 44.4091 110.226 43.7958C110.226 43.1691 110.106 42.6358 109.866 42.1958C109.626 41.7558 109.299 41.4158 108.886 41.1758C108.472 40.9358 108.006 40.8158 107.486 40.8158C106.966 40.8158 106.499 40.9358 106.086 41.1758C105.672 41.4158 105.339 41.7558 105.086 42.1958C104.846 42.6358 104.726 43.1691 104.726 43.7958C104.726 44.4091 104.846 44.9424 105.086 45.3958C105.339 45.8358 105.672 46.1758 106.086 46.4158C106.499 46.6558 106.966 46.7758 107.486 46.7758ZM119.871 49.3358C118.605 49.3358 117.618 49.0158 116.911 48.3758C116.205 47.7224 115.851 46.7558 115.851 45.4758V36.0358H118.971V45.4358C118.971 45.8891 119.091 46.2424 119.331 46.4958C119.571 46.7358 119.898 46.8558 120.311 46.8558C120.805 46.8558 121.225 46.7224 121.571 46.4558L122.411 48.6558C122.091 48.8824 121.705 49.0558 121.251 49.1758C120.811 49.2824 120.351 49.3358 119.871 49.3358ZM114.191 41.0558V38.6558H121.651V41.0558H114.191ZM124.163 49.1758V38.4158H127.283V49.1758H124.163ZM125.723 36.9158C125.149 36.9158 124.683 36.7491 124.323 36.4158C123.963 36.0824 123.783 35.6691 123.783 35.1758C123.783 34.6824 123.963 34.2691 124.323 33.9358C124.683 33.6024 125.149 33.4358 125.723 33.4358C126.296 33.4358 126.763 33.5958 127.123 33.9158C127.483 34.2224 127.663 34.6224 127.663 35.1158C127.663 35.6358 127.483 36.0691 127.123 36.4158C126.776 36.7491 126.309 36.9158 125.723 36.9158ZM136.538 49.3358C135.632 49.3358 134.838 49.1358 134.158 48.7358C133.478 48.3358 132.945 47.7291 132.558 46.9158C132.185 46.0891 131.998 45.0491 131.998 43.7958C131.998 42.5291 132.178 41.4891 132.538 40.6758C132.898 39.8624 133.418 39.2558 134.098 38.8558C134.778 38.4558 135.592 38.2558 136.538 38.2558C137.552 38.2558 138.458 38.4891 139.258 38.9558C140.072 39.4091 140.712 40.0491 141.178 40.8758C141.658 41.7024 141.898 42.6758 141.898 43.7958C141.898 44.9291 141.658 45.9091 141.178 46.7358C140.712 47.5624 140.072 48.2024 139.258 48.6558C138.458 49.1091 137.552 49.3358 136.538 49.3358ZM130.178 53.0558V38.4158H133.158V40.6158L133.098 43.8158L133.298 46.9958V53.0558H130.178ZM135.998 46.7758C136.518 46.7758 136.978 46.6558 137.378 46.4158C137.792 46.1758 138.118 45.8358 138.358 45.3958C138.612 44.9424 138.738 44.4091 138.738 43.7958C138.738 43.1691 138.612 42.6358 138.358 42.1958C138.118 41.7558 137.792 41.4158 137.378 41.1758C136.978 40.9358 136.518 40.8158 135.998 40.8158C135.478 40.8158 135.012 40.9358 134.598 41.1758C134.185 41.4158 133.858 41.7558 133.618 42.1958C133.378 42.6358 133.258 43.1691 133.258 43.7958C133.258 44.4091 133.378 44.9424 133.618 45.3958C133.858 45.8358 134.185 46.1758 134.598 46.4158C135.012 46.6558 135.478 46.7758 135.998 46.7758ZM150.411 49.1758V47.0758L150.211 46.6158V42.8558C150.211 42.1891 150.004 41.6691 149.591 41.2958C149.191 40.9224 148.571 40.7358 147.731 40.7358C147.158 40.7358 146.591 40.8291 146.031 41.0158C145.484 41.1891 145.018 41.4291 144.631 41.7358L143.511 39.5558C144.098 39.1424 144.804 38.8224 145.631 38.5958C146.458 38.3691 147.298 38.2558 148.151 38.2558C149.791 38.2558 151.064 38.6424 151.971 39.4158C152.878 40.1891 153.331 41.3958 153.331 43.0358V49.1758H150.411ZM147.131 49.3358C146.291 49.3358 145.571 49.1958 144.971 48.9158C144.371 48.6224 143.911 48.2291 143.591 47.7358C143.271 47.2424 143.111 46.6891 143.111 46.0758C143.111 45.4358 143.264 44.8758 143.571 44.3958C143.891 43.9158 144.391 43.5424 145.071 43.2758C145.751 42.9958 146.638 42.8558 147.731 42.8558H150.591V44.6758H148.071C147.338 44.6758 146.831 44.7958 146.551 45.0358C146.284 45.2758 146.151 45.5758 146.151 45.9358C146.151 46.3358 146.304 46.6558 146.611 46.8958C146.931 47.1224 147.364 47.2358 147.911 47.2358C148.431 47.2358 148.898 47.1158 149.311 46.8758C149.724 46.6224 150.024 46.2558 150.211 45.7758L150.691 47.2158C150.464 47.9091 150.051 48.4358 149.451 48.7958C148.851 49.1558 148.078 49.3358 147.131 49.3358ZM156.155 49.1758V38.4158H159.135V41.4558L158.715 40.5758C159.035 39.8158 159.548 39.2424 160.255 38.8558C160.962 38.4558 161.822 38.2558 162.835 38.2558V41.1358C162.702 41.1224 162.582 41.1158 162.475 41.1158C162.368 41.1024 162.255 41.0958 162.135 41.0958C161.282 41.0958 160.588 41.3424 160.055 41.8358C159.535 42.3158 159.275 43.0691 159.275 44.0958V49.1758H156.155Z" fill="white"/>
<path d="M156.647 131.375L148.28 159.753C147.47 161.504 145.611 163.422 143.644 163.732C141.141 164.125 135.039 164.328 132.227 164.363C128.437 164.423 124.73 163.768 121.31 163.744C113.539 163.684 105.769 163.827 98.0223 163.768C98.0223 152.796 102.635 142.038 107.342 132.317C121.203 130.506 135.409 130.256 149.448 130.434C150.783 130.458 152.01 131.173 153.298 130.947C156.182 130.446 156.647 126.622 153.905 125.407C142.595 125.645 130.797 124.716 119.534 125.276C117.282 125.383 113.766 125.645 111.597 125.943C103.755 127.027 102.897 128.326 99.6431 135.247C96.7352 141.418 95.1382 148.149 93.0764 154.618C85.4727 154.225 77.1421 155.226 69.6576 153.939C64.9739 153.141 63.6272 152.438 64.1396 147.399C64.2469 146.291 67.1668 136.605 67.5839 136.2C67.6316 136.165 68.7995 135.998 68.7161 136.486C67.7508 138.774 67.5124 145.683 69.8722 146.827C71.1712 147.458 73.519 147.03 73.9004 145.683V120.415C73.9004 120.201 72.7563 119.212 72.3392 119.081C69.2763 118.164 68.5731 121.035 67.4766 123.191C64.7355 128.564 58.8481 142.359 58.3952 147.983C57.6801 156.894 63.5318 158.359 70.8018 159.681C76.1171 160.646 75.843 161.409 80.5864 163.684C88.5833 167.52 95.1501 169.141 104.029 169.534C115.029 170.01 129.962 170.284 140.831 169.534C147.649 169.057 150.652 167.83 153.429 161.457C157.147 152.939 158.804 141.943 161.807 133.019C161.712 130.172 158.399 129.195 156.647 131.375ZM87.6894 160.885L92.2779 160.325C92.8857 163.803 89.93 160.682 87.6894 160.885Z" fill="white"/>
<path d="M98.4501 74.3468C114.408 72.2501 126.219 89.846 122.298 104.499C114.682 132.972 71.8254 129.124 75.0433 96.3031C75.2578 94.0753 75.9729 89.7388 78.7736 89.7507C83.5884 89.7507 80.1561 97.3633 80.1561 100.318C80.1561 121.488 109.915 125.169 116.839 103.63C120.725 91.5258 109.832 76.7652 96.5551 80.4822C93.1704 81.4233 88.5701 86.3912 85.7932 85.5811C84.1486 85.1045 83.8625 83.115 84.5299 81.6735C85.8886 78.719 95.2084 74.7757 98.4501 74.3468Z" fill="white"/>
<path d="M105.293 98.9729C111.204 97.0072 109.25 105.644 107.415 106.276C101.563 108.289 102.957 99.7473 105.293 98.9729Z" fill="white"/>
<path d="M98.3076 98.5078C102.169 98.5078 101.823 107.014 97.1992 106.359C93.457 105.835 95.5188 98.4959 98.3076 98.5078Z" fill="white"/>
</svg>

<svg xmlns="http://www.w3.org/2000/svg" width="213" height="198" fill="none"><path fill="#301F36" d="M0 0h213v198H0z"/><path fill="#fff" d="M58.23 49.176v-14h6.06q1.881 0 3.24.62 1.36.6 2.1 1.74t.74 2.72q0 1.56-.74 2.7t-2.1 1.76q-1.359.6-3.24.6h-4.26l1.44-1.46v5.32zm3.24-4.96-1.44-1.54h4.08q1.5 0 2.24-.64t.74-1.78q0-1.161-.74-1.8-.74-.64-2.24-.64h-4.08l1.44-1.54zm10.974 4.96v-10.76h2.98v3.04l-.42-.88q.48-1.14 1.54-1.72 1.06-.6 2.58-.6v2.88a4 4 0 0 0-.36-.02 3 3 0 0 0-.34-.02q-1.28 0-2.08.74-.78.72-.78 2.26v5.08zm13.577.16q-1.72 0-3.06-.72a5.6 5.6 0 0 1-2.1-1.96q-.76-1.26-.76-2.86 0-1.62.76-2.86a5.4 5.4 0 0 1 2.1-1.96q1.34-.72 3.06-.72 1.7 0 3.04.72a5.27 5.27 0 0 1 2.1 1.94q.76 1.239.76 2.88 0 1.6-.76 2.86a5.4 5.4 0 0 1-2.1 1.96q-1.34.72-3.04.72m0-2.56q.78 0 1.4-.36t.98-1.02q.36-.68.36-1.6 0-.94-.36-1.6a2.6 2.6 0 0 0-.98-1.02q-.62-.36-1.4-.36t-1.4.36-1 1.02q-.36.66-.36 1.6 0 .92.36 1.6.38.66 1 1.02t1.4.36m12.385 2.56q-1.9 0-2.96-.96-1.06-.98-1.06-2.9v-9.44h3.12v9.4q0 .68.36 1.06.36.36.98.36.741 0 1.26-.4l.84 2.2q-.48.34-1.16.52-.66.16-1.38.16m-5.68-8.28v-2.4h7.46v2.4zm14.76 8.28q-1.72 0-3.06-.72a5.6 5.6 0 0 1-2.1-1.96q-.76-1.26-.76-2.86 0-1.62.76-2.86a5.4 5.4 0 0 1 2.1-1.96q1.34-.72 3.06-.72 1.7 0 3.04.72a5.27 5.27 0 0 1 2.1 1.94q.76 1.239.76 2.88 0 1.6-.76 2.86a5.4 5.4 0 0 1-2.1 1.96q-1.34.72-3.04.72m0-2.56q.78 0 1.4-.36t.98-1.02q.36-.68.36-1.6 0-.94-.36-1.6t-.98-1.02-1.4-.36-1.4.36-1 1.02q-.36.66-.36 1.6 0 .92.36 1.6.38.66 1 1.02t1.4.36m12.385 2.56q-1.9 0-2.96-.96-1.06-.98-1.06-2.9v-9.44h3.12v9.4q0 .68.36 1.06.36.36.98.36.741 0 1.26-.4l.84 2.2q-.48.34-1.16.52-.66.16-1.38.16m-5.68-8.28v-2.4h7.46v2.4zm9.972 8.12v-10.76h3.12v10.76zm1.56-12.26q-.86 0-1.4-.5a1.62 1.62 0 0 1-.54-1.24q0-.74.54-1.24t1.4-.5 1.4.48q.54.459.54 1.2 0 .78-.54 1.3-.52.5-1.4.5m10.815 12.42q-1.36 0-2.38-.6t-1.6-1.82q-.56-1.24-.56-3.12 0-1.9.54-3.12t1.56-1.82 2.44-.6q1.52 0 2.72.7a4.9 4.9 0 0 1 1.92 1.92q.72 1.24.72 2.92 0 1.7-.72 2.94a4.9 4.9 0 0 1-1.92 1.92q-1.2.68-2.72.68m-6.36 3.72v-14.64h2.98v2.2l-.06 3.2.2 3.18v6.06zm5.82-6.28q.78 0 1.38-.36.62-.36.98-1.02.38-.68.38-1.6 0-.94-.38-1.6-.36-.66-.98-1.02-.6-.36-1.38-.36t-1.4.36-.98 1.02-.36 1.6q0 .92.36 1.6.36.66.98 1.02t1.4.36m14.413 2.4v-2.1l-.2-.46v-3.76q0-1-.62-1.56-.6-.56-1.86-.56-.86 0-1.7.28a4.3 4.3 0 0 0-1.4.72l-1.12-2.18q.88-.621 2.12-.96a9.5 9.5 0 0 1 2.52-.34q2.46 0 3.82 1.16t1.36 3.62v6.14zm-3.28.16q-1.26 0-2.16-.42-.9-.44-1.38-1.18a3 3 0 0 1-.48-1.66q0-.96.46-1.68.48-.72 1.5-1.12 1.02-.42 2.66-.42h2.86v1.82h-2.52q-1.1 0-1.52.36-.4.36-.4.9 0 .6.46.96.48.34 1.3.34.78 0 1.4-.36.62-.38.9-1.1l.48 1.44q-.34 1.04-1.24 1.58t-2.32.54m9.024-.16v-10.76h2.98v3.04l-.42-.88q.48-1.14 1.54-1.72 1.06-.6 2.58-.6v2.88a4 4 0 0 0-.36-.02 3 3 0 0 0-.34-.02q-1.28 0-2.08.74-.78.72-.78 2.26v5.08zM156.647 131.375l-8.367 28.378c-.81 1.751-2.669 3.669-4.636 3.979-2.503.393-8.605.596-11.417.631-3.79.06-7.497-.595-10.917-.619-7.771-.06-15.541.083-23.288.024 0-10.972 4.613-21.73 9.32-31.451 13.861-1.811 28.067-2.061 42.106-1.883 1.335.024 2.562.739 3.85.513 2.884-.501 3.349-4.325.607-5.54-11.31.238-23.108-.691-34.371-.131-2.252.107-5.768.369-7.937.667-7.842 1.084-8.7 2.383-11.954 9.304-2.908 6.171-4.505 12.902-6.567 19.371-7.603-.393-15.934.608-23.418-.679-4.684-.798-6.03-1.501-5.518-6.54.107-1.108 3.027-10.794 3.444-11.199.048-.035 1.215-.202 1.132.286-.965 2.288-1.204 9.197 1.156 10.341 1.3.631 3.647.203 4.028-1.144v-25.268c0-.214-1.144-1.203-1.56-1.334-3.064-.917-3.767 1.954-4.863 4.11-2.742 5.373-8.629 19.168-9.082 24.792-.715 8.911 5.137 10.376 12.407 11.698 5.315.965 5.041 1.728 9.784 4.003 7.997 3.836 14.564 5.457 23.443 5.85 11 .476 25.933.75 36.802 0 6.818-.477 9.821-1.704 12.598-8.077 3.718-8.518 5.375-19.514 8.378-28.438-.095-2.847-3.408-3.824-5.16-1.644m-68.958 29.51 4.589-.56c.608 3.478-2.348.357-4.589.56"/><path fill="#fff" d="M98.45 74.347c15.958-2.097 27.769 15.499 23.848 30.152-7.616 28.473-50.473 24.625-47.255-8.196.215-2.228.93-6.564 3.73-6.552 4.815 0 1.383 7.612 1.383 10.567 0 21.17 29.759 24.851 36.683 3.312 3.886-12.104-7.007-26.865-20.284-23.148-3.385.941-7.985 5.91-10.762 5.1-1.644-.477-1.93-2.467-1.263-3.908 1.359-2.955 10.678-6.898 13.92-7.327"/><path fill="#fff" d="M105.293 98.973c5.911-1.966 3.957 6.671 2.122 7.303-5.852 2.013-4.458-6.529-2.122-7.303M98.308 98.508c3.861 0 3.515 8.506-1.109 7.851-3.742-.524-1.68-7.863 1.109-7.851"/></svg>
